X:6651
T:The Cook in the Kitchen
O:england
M:6/8
L:1/8
Q:200
C:Trad Irish
R:jig
K:G
E|DGG GAG|FDE =F2 E|DGG GFG|Add cAG|
DGG GAG|FDE =F2 d|cAG FGA|BGG G2:|
A|BcB BAG|ABA AGF|GAG GFG|Add cAG|
BcB BAG|ABA ABd|cAG FGA|BGG G2:|
B|d2 e f2 g|a2 g fed|cAG FGA|Bdd cAG|
d2 e f2 g|a2 g fed|cAG FGA|BGG G2:||


